X:1
T:I’ve Been Waiting for You
T:I’ve Been Waiting for You
T:John Robson Sweney, 1879
T:Richard W. Adams, 2017, from Martha Pettus 1914
T:Public Domain Courtesy of the Cyber Hymnal™
T:Public Domain Courtesy of the Cyber Hymnal™
C:John Robson Sweney, 1879
Z:Public Domain
Z:Courtesy of the Cyber Hymnal™
%%score ( 1 2 ) ( 3 4 )
L:1/8
Q:1/4=93
M:3/4
K:F
V:1 treble 
V:2 treble 
V:3 bass 
V:4 bass 
V:1
 F>[FG] | [FA]3 [FA] [EG]>[FA] | [Ec]2 [EB]2 [GB]>[FA] | [EG]3 F [EG]>[EA] | [CF]4 [CF]>[CG] | %5
w: 1.~On- ly|those few words of|greet- ing, Yet all|through the sum- mer|day, In a|
w: 2.~“Long the|wait, the ea- ger|pin- ing, Oh, how|oft our hearts would|swell; Wait- ing|
w: 3.~“Like your|Lord, you came to|show us How to|reach our heav’n- ly|home, Give us|
w: 4.~“Wait- ing|for you to re-|mem- ber That we|ne- ver here have|heard Of the|
w: 5.~Are you|list- ening to their|voic- es? Do you|long to heed the|call? Our Re-|
 [FA]3 [FA] [EG]>[FA] | [Ec]2 [EB]2 [GB]>[FA] | [EG]3 F [FA]>[EG] | [CF]4 [Fc]>[Fc] | %9
w: teach- er’s heart were|thrill- ing Ech- oes|sweet that seemed to|say: “O dear|
w: long, with hope and|pa- tience, For the|sto- ry you would|tell! Now you|
w: light, dis- pel our|dark- ness, Show us|par- a- dise to|come!” Bro- thers,|
w: joy that makes life|brigh- tness, Of the|com- fort in God’s|word! For we|
w: deemer, who we trust-|ed, He has said|He died for all!|So we speed,|
 [Fd]3 [Fd] [FB]>[Fd] | [Fc]2 [FA]2 [FA]>[FA] | [EG]3 G [FA]>[F^B] | [Ec]4 [CF]>[CG] | %13
w: friend, from strange, far|coun- try, You came|o’er the o- cean|blue! Did you|
w: come, and so I|bless you For the|hope you bring to|me; For the|
w: sis- ters, hear them|plead- ing, Lis- ten|to the sto- ry|true: From a-|
w: too, we need a|Sav- ior! For life’s|sor- row, pain and|fear! O dear|
w: with pray- ers, our|an- swer To send|far a- cross the|sea, To sad|
 [FA]3 [FA] [EG]>[FA] | [Ec]2 [EB]2 [GB]>[FA] | [EG]3 F [FA]>[EG] | [CF]4 |] %17
w: hear our voic- es|call- ing, Did you|know we longed for|you?”|
w: joy- ful, glor- ious|pro- mise That mine|eyes will Hea- ven|see!|
w: far, come cry- ing|voic- es, “Here we|wait, we wait for|you!”|
w: Christ- ians, send the|Gos- pel Send the|truth you hold so|dear!|
w: hearts, in dark- ness|dwell- ing, Wait- ing|still for you and|me!|
V:2
 F3/2 x/ | x6 | x6 | x3 F x2 | x6 | x6 | x6 | x6 | x6 | x6 | x6 | x6 | x6 | x6 | x6 | x6 | x4 |] %17
V:3
 [F,A,]>[F,B,] | [F,C]3 [F,C] [B,C]>[A,C] | [G,C]2 [G,C]2 [C,C]>[C,C] | %3
 [C,B,]3 [C,A,] [C,B,]>[C,C] | [F,A,]4 [F,A,]>[F,B,] | [F,C]3 [F,C] [B,C]>[A,C] | %6
 [G,C]2 [G,C]2 [C,C]>[C,C] | [C,B,]3 [C,A,] [C,C]>[C,B,] | [F,A,]4 [F,A,]>[F,A,] | %9
 B,3 [B,,B,] [B,,D]>[B,,B,] | [F,A,]2 [F,C]2 [F,C]>[F,C] | [G,C]3 [G,E] [G,D]>[G,D] | %12
 (C2 B,2) [F,A,]>[F,B,] | [F,C]3 [F,C] [B,C]>[A,C] | [G,C]2 [G,C]2 [C,C]>[C,C] | %15
 [C,B,]3 [C,A,] [C,C]>[C,B,] | [F,A,]4 |] %17
V:4
 x2 | x6 | x6 | x6 | x6 | x6 | x6 | x6 | x6 | B,3 x3 | x6 | x6 | C,4 x2 | x6 | x6 | x6 | x4 |] %17

